X:1
T:Old Devil Moon
T:Old Devil Moon
C:Burton Lane
Z:All Rights Reserved
L:1/8
M:2/2
K:D
V:1 treble nm="Voice"
%%MIDI program 52
V:1
"D6" D8 |"Am7/D" =CCCC C2 E2 |"D6" D8 |"Am7/D" EEEE E2 G2 |"D6" F8 |"Am7/D" GGGG G2 B2 | %6
w: I|look at you and sud- den-|ly|some- thing in your eyes I|see|soon be- gins be- witch- ing|
"Dmaj7" A8- |"Am7" A4"D7" A2 A2 |"Gmaj7" A4 G F2 D- | D4 F2 G2 |"Gm7" A4 G F2 D- |"C7" D4 F2 G2 | %12
w: me.|* It's that|old dev- il moon|* that you|stole from the skies.|* It's that|
"Fm7" _B4"Bb7" ^G =G2 _E- |"Eb" E4"A7" F =E2 D- |"D6" D8 |"Am7/D" z4 =CA,CD- |"D6" D4 CA,=CE- | %17
w: old dev- il moon|* in your eyes.||You and your glance|* make this ro- mance|
"Am7/D" E4 (3=C2 A,2 C2 |"Bmaj7" F4 F4- | F4 DB,DF- |"Bm7" F4 DB,D^G- |"E7" G4 (3D2 B,2 D2 | %22
w: * too hot to|han- dle.|* Stars in the night|* blaz- ing their light|* can't hold a|
"Em7" A4 A4- |"A7" A B2 =F EDB,A, |"D6" D8 |"Am7/D" =CCCC C2 E2 |"D6" D8 |"Am7/D" EEEE E2 G2 | %28
w: can- dle|* to your raza- zle daz- zle.-|You've|got me fly- in' high and|wide|on a mag- ic car- pet|
"D" F8 |"Am7/D" GGGG G2 B2 |"Dmaj7" A8- |"Am7" A4"D7" A2 A2 |"G" A4 G F2 D- | D4 F2 G2 | %34
w: ride|full of but- ter- flies in-|side.|* Wan- na|cry wan- na croon,|* wan- na|
"Gm9" A4 G F2 D- |"C9" D4 F2 G2 |"Fm7" _B4"Bb7" ^G =G2 _E- |"Eb6" E4 F"A7" =E2 D- |"D6" D8 | %39
w: laugh, like a loon.|* It's that|old dev- il moon|* in your eyes.||
"Am7/D" z4 =CA, C2 |"D" D4 D4- | D4"Am7/D" =CA, C2 |"D6" D8- |"Am7/D" D4 (3=c2 c2 c2 | %44
w: Just when I|think I'm|* free as a|dove|* old dev- il|
"D6" A4"Am7/D" (3G2 A2 G2 |"D6" F4"Am7/D" (3D2 =C2 E2 |"D" A8 |] %47
w: moon deep in your|eyes blinds me with|love.|

